X:1201
L:1/8
M:3/4
K:G
 (FE) | (D4 B2) | (G4 e2) | (d2 F3) F | F4 e2 | (d2 F3) F | F4 e2 | (d2 G3) G | G4 (FE) | (D4 B2) | 
 (G4 e2) | (d2 F3) F | F4 e2 | d2 c2 d2 | e2 d2 F2 | G3 (DBA) | (G2 G2) || (Bc) | (d2 B3) B | 
 (B4 a2) | (g2 A3) A | A4 g2 | (f2 A3) B | (c4 f2) | (e2 d3) _B | =B4 (Bc) | (d2 B3) B | (B4 a2) | 
 (a2 g3) .B | A4 g2 | (f2 e3) B | (d2 c2) A2 | G3 (DBA) | (G2 G2) :|

